X: 1
T: String Quartet in B\b Major opus 55 no 3 mvt 1
C: Franz Joseph Haydn
%%abc-version 2.0
%%abcx-abcm2ps-target-version 5.9.1 (29 Sep 2008)
%%abc-creator hum2abc beta
%%abcx-conversion-date 2021/02/14 14:38:16
%%abc-copyright Copyright (c) 1994, 2000 Center for Computer Assisted Research in the Humanities
%%abc-edited-by Walter Hewlett
%%abcx-initial-encoding-date 1994/11/09
%%gracespace 0 6 6
%%humdrum-veritas 2788525712
%%humdrum-veritas-data 1527037286
%%linebreak <none>
%%barnumbers 0
L: 1/4
M: 3/4
N: Derived from op55n3-01.krn
Q: "Vivace assai"
%%staves [1 2 3 4]
V: 1 clef=treble
V: 2 clef=treble
V: 3 clef=alto
V: 4 clef=bass
K: Bb
[V:1]B,2 A, [I:setbarnb2] |
[V:2]B,2 A, |
[V:3]B,2 A, |
[V:4]B,,2 A,, |
[V:1]E2 D |
[V:2]E2 D |
[V:3]E2 D |
[V:4]E,2 D, |
[V:1]G2 F |
[V:2]G2 F |
[V:3]G2 F |
[V:4]G,2 F, |
[V:1]=E z z |
[V:2]=E z z |
[V:3]=E z z |
[V:4]=E, z z |
[V:1]e2 d |
[V:2]c2 B |
[V:3]F3 |
[V:4]A,,2 B,, |
[V:1]!trill!c d B |
[V:2]G3 |
[V:3]G E C |
[V:4]E,2 =E, |
[V:1]A B =B |
[V:2]F G ^G |
[V:3]C z z |
[V:4]F,3- |
[V:1]c z z |
[V:2]A z z |
[V:3]z3 |
[V:4]F, E, C, |
[V:1]B,2 A, |
[V:2]B,2 A, |
[V:3]B,2 A, |
[V:4]B,,2 A,, |
[V:1]E2 D |
[V:2]E2 D |
[V:3]E2 D |
[V:4]E,2 D, |
[V:1]G2 F |
[V:2]G2 F |
[V:3]G2 F |
[V:4]G,2 F, |
[V:1]_A z z |
[V:2]_A z z |
[V:3]_A z z |
[V:4]_A, z z |
[V:1]=B2 c |
[V:2]=B2 c |
[V:3]F2 E/C/ |
[V:4]D,2 E, |
[V:1]d f e/c/ |
[V:2]F D E/G/ |
[V:3]G, G G/E/ |
[V:4]=B,,2 C,/E,/ |
[V:1]B2 c/A/ |
[V:2]F2 F//E//D//E// |
[V:3]D2 E/C/ |
[V:4]F,3 |
[V:1]B3/ c//d// e//f//g//a// |
[V:2]D z z/e//f// |
[V:3]B, z z |
[V:4]B, G, E, |
[V:1]b a g |
[V:2]g f e |
[V:3]z3 |
[V:4]B,,3/ C,//D,// E,//F,//G,//=A,// |
[V:1]f _a g |
[V:2]d f e |
[V:3]B,3/ C//D// E//F//G//A// |
[V:4]B, z z |
[V:1]f e d |
[V:2]d c B |
[V:3]B ^F G |
[V:4]z3 |
[V:1].c .c .c |
[V:2].B .B .B |
[V:3]E =E =F |
[V:4]z3 |
[V:1]!sfz!c- c/>_d/ c3//d// |
[V:2]!sfz!B3 |
[V:3]!sfz!_G2 F |
[V:4]z3 |
[V:1].c .c .c |
[V:2].B .B .B |
[V:3]E =E F |
[V:4]z3 |
[V:1]!sfz!c- c/>_d/ c3//d// |
[V:2]!sfz!B3 |
[V:3]!sfz!_G2 F |
[V:4]z3 |
[V:1]c c c |
[V:2]B/>=G/ B/>G/ B3//G// |
[V:3].=E .E .E |
[V:4]z3 |
[V:1]c/>_d/ c/>d/ c3//d// |
[V:2]A/>B/ A/>B/ A3//B// |
[V:3].F .F .F |
[V:4]z3 |
[V:1]c z z |
[V:2]A z z |
[V:3]F z z |
[V:4]z3 |
[V:1]B2 A |
[V:2]z3 |
[V:3]D2 C |
[V:4]z =E, F, |
[V:1]e2 =d |
[V:2]c2 B |
[V:3]z .F .F |
[V:4]z A, B, |
[V:1]g2 ^f |
[V:2]z .d .c |
[V:3]z .B .A |
[V:4]z3 |
[V:1].c' .b z |
[V:2].a .g z |
[V:3].^F .G z |
[V:4]z3 |
[V:1]z .c .c |
[V:2]z .C .C |
[V:3]A,2 G, |
[V:4]=F,2 =E, |
[V:1]c3/ d//=e// f |
[V:2]G2 F |
[V:3]=E3/ =F//G// C |
[V:4]B,2 A, |
[V:1]f/b/ b/a/ a/g/ |
[V:2]F3- |
[V:3]D3- |
[V:4]D2 C |
[V:1]g g g |
[V:2]F F F |
[V:3]D D D |
[V:4]=B, B, B, |
[V:1]g/c'/ c'/b/ b/a/ |
[V:2]=E3 |
[V:3]=E3- |
[V:4]C3 |
[V:1]a a a |
[V:2]G G G |
[V:3]E =E E |
[V:4]^C C C |
[V:1]a/d'/ d'/c'/ c'/b/ |
[V:2]F/a/ a/g/ g/f/ |
[V:3]F/f/ f/=e/ e/d/ |
[V:4]D z z |
[V:1]b/a/ a/g/ g/f/ |
[V:2]f/=e/ e/d/ d/c/ |
[V:3]d/c/ c/B/ B/A/ |
[V:4]z3 |
[V:1]f/=e/ e/d/ d/c/ |
[V:2]c/B/ B/A/ A/G/ |
[V:3]A/G/ G/F/ F/=E/ |
[V:4]z3 |
[V:1]c/=B/ B2 |
[V:2]G/F/ F2 |
[V:3]=E/D/ D2 |
[V:4]z/._A,/ A,/G,/ G,/F,/ |
[V:1]B3 |
[V:2]G2 =E |
[V:3]_D2 C |
[V:4]F,/=E,/ F,/E,/ G,/C,/ |
[V:1]B/A/ A/G/ d/G/ |
[V:2]F D D |
[V:3]C =D F, |
[V:4]F, B,, =B,, |
[V:1]F2 G3//F// |
[V:2]A,2 B, |
[V:3]F,2 =E, |
[V:4]C,3 |
[V:1]F B .B |
[V:2]A, F .F |
[V:3]F, D D |
[V:4]D, D, D, |
[V:1]B .B, .B, |
[V:2]G .C .C |
[V:3]C z z |
[V:4]=E, z z |
[V:1].B, .B, .B, |
[V:2].C .C .C |
[V:3]z3 |
[V:4]z C, D, |
[V:1].B, .B, .B, |
[V:2].C .C .C |
[V:3]z3 |
[V:4].E, !sfz!=E,2 |
[V:1]B, B, B, |
[V:2]C C C |
[V:3]z3 |
[V:4].F, !sfz!^F,2 |
[V:1]B, B, B, |
[V:2]C C C |
[V:3]z3 |
[V:4]G,/A,/ B,/.A,/ .G,/.=F,/ |
[V:1]B, B, B, |
[V:2]C C C |
[V:3]z3 |
[V:4]=E,/F,/ G,/.F,/ .E,/.D,/ |
[V:1]B, c d |
[V:2]C .c .c |
[V:3]z .B .B |
[V:4]C, z z |
[V:1].e !sfz!=e2 |
[V:2].c .c .c |
[V:3].B .B .B |
[V:4]z3 |
[V:1].f !sfz!^f2 |
[V:2]c c c |
[V:3]B B B |
[V:4]z3 |
[V:1]g/a/ b/.a/ .g/.=f/ |
[V:2]c c c |
[V:3]B B B |
[V:4]z3 |
[V:1]=e/f/ g/.c/ .d/.e/ |
[V:2]c c c |
[V:3]B B B |
[V:4]z3 |
[V:1]f f3/ g//a// |
[V:2]c/B/ A/G/ F/=E/ |
[V:3]A A3/ B//c// |
[V:4]A,/G,/ F,/=E,/ D,/C,/ |
[V:1]b d' d' |
[V:2]D b b |
[V:3]d/c/ B/A/ G/F/ |
[V:4]B,,/A,,/ G,,/F,,/ =E,,/D,,/ |
[V:1]d'2 c'/b/ |
[V:2]b2 a/g/ |
[V:3]=E3 |
[V:4]C,,/=E,,/ .G,,/.C,/ .=E,/.C,/ |
[V:1]a2 f//=e//f//g// |
[V:2]f2 z |
[V:3]F z z |
[V:4]F,,/A,,/ .C,/.F,/ .A,/.F,/ |
[V:1]!sfz!_a/=e/ .f/.a/ .=b/.d'/ |
[V:2]!sfz![=F3_A,3] -|
[V:3]!sfz!D3- |
[V:4]!sfz!=B,,3- |
[V:1].f'/.d'/ .=b/._a/ .f/.d/ |
[V:2][F3A,3-] |
[V:3]D3- |
[V:4]B,,3- |
[V:1].=B/._A/ .F/.D/ .=B,/._A,/ |
[V:2][FA,] [F_A,] [FA,] |
[V:3]D D D |
[V:4]B,, =B,, B,, |
[V:1]G,3/ =A,//B,// C//D/8=E/8F/8G/8A/8B/8 |
[V:2][=E3=G,3] |
[V:3]C3 |
[V:4]B,,3 |
[V:1]c A F |
[V:2]C3 |
[V:3]F3 |
[V:4]A,,3 |
[V:1]D B G |
[V:2]D3 |
[V:3]G3 |
[V:4]B,,3 |
[V:1]C D =E |
[V:2]B,3 |
[V:3][G,3=E,3] |
[V:4]C,3 |
[V:1]G2 F |
[V:2]B,2 =A, |
[V:3]=E,2 F, |
[V:4]z F,, F,, |
[V:1]B2 A |
[V:2]=E2 F |
[V:3]G,2 F, |
[V:4]z F,, F,, |
[V:1]d2 c |
[V:2]B2 A |
[V:3]=E2 F |
[V:4]z F,, F,, |
[V:1]!sfz!b2 a//g//f//=e// |
[V:2]!sfz!=E2 B |
[V:3]!sfz!G3 |
[V:4]!sfz!C,,3 |
[V:1]f z C/F/ |
[V:2]A z z |
[V:3]F z z |
[V:4]F,, z z |
[V:1]=E/G/ B/.d/ .c/.E/ |
[V:2]B,3 |
[V:3]G,3 |
[V:4]C,3 |
[V:1]F z c/f/ |
[V:2]A, z z |
[V:3]A, z z |
[V:4]F, z z |
[V:1]=e/g/ b/.d'/ .c'/.e/ |
[V:2]B3 |
[V:3]G3 |
[V:4]C3 |
[V:1]f z z |
[V:2]A z z |
[V:3]A z z |
[V:4]F, z z |
[V:1]^F2 G |
[V:2]^F2 G |
[V:3]^F2 G |
[V:4]^F,2 G, |
[V:1]D2 E |
[V:2]D2 E |
[V:3]D2 E |
[V:4]D,2 E, |
[V:1]=B,2 C |
[V:2]=B,2 C |
[V:3]=B,2 C |
[V:4]=B,,2 C, |
[V:1]G, [_a2=B2=D2] |
[V:2]G,/_A/ G/=F/ E/D/ |
[V:3]G,/=F/ E/D/ C/=B,/ |
[V:4]G,,3- |
[V:1]g =b c' |
[V:2]E/G/ _A/G/ F/E/ |
[V:3]C/E/ F/E/ D/C/ |
[V:4]G,,3- |
[V:1]d' f f//e//d//e// |
[V:2]D/E/ F/=B/ d//c//B//c// |
[V:3]=B,/C/ D/D/ C/E/ |
[V:4]G,,3- |
[V:1]d d/>e/ d3//e// |
[V:2]=B B/>c/ B3//c// |
[V:3]G G, G, |
[V:4]G,, G,, G,, |
[V:1]d z z |
[V:2]=B z z |
[V:3]G, z z |
[V:4]G,, z z |
[V:1]_A,2 G, |
[V:2]_A,2 G, |
[V:3]_A,2 G, |
[V:4]_A,,2 G,, |
[V:1]_D2 C |
[V:2]_D2 C |
[V:3]_D2 C |
[V:4]_D,2 C, |
[V:1]F2 E |
[V:2]F2 E |
[V:3]F2 E |
[V:4]F,2 E, |
[V:1]=D z z |
[V:2]=D z z |
[V:3]=D z z |
[V:4]=D, z z |
[V:1]_d2 c |
[V:2]B2 _A |
[V:3]E3 |
[V:4]G,,2 _A,, |
[V:1]B c _A |
[V:2]F3 |
[V:3]F _D B, |
[V:4]_D,2 =D, |
[V:1]G _A =A |
[V:2]E F ^F |
[V:3]B, z z |
[V:4]E,3- |
[V:1]B z z |
[V:2]G z z |
[V:3]z3 |
[V:4]E, _D, B,, |
[V:1]z .E .E |
[V:2]z3 |
[V:3]C2 B, |
[V:4]_A,,2 G,, |
[V:1]E3/ F//G// _A |
[V:2]B,2 _A, |
[V:3]G,3/ _A,//B,// E, |
[V:4]_D,2 C, |
[V:1]_A/_d/ d/c/ c/B/ |
[V:2]_A, _A A |
[V:3]F,3 |
[V:4]F,2 E, |
[V:1]B B B |
[V:2]_A A A |
[V:3]F F F |
[V:4]=D, D, D, |
[V:1]B/e/ e/_d/ d/c/ |
[V:2]G3 |
[V:3]E3 |
[V:4]E,3 |
[V:1]c c c |
[V:2]B B B |
[V:3]G G G |
[V:4]=E, E, E, |
[V:1]c/_a/ a/g/ g/f/ |
[V:2]_A3 |
[V:3]F3 |
[V:4]F,3 |
[V:1]f/e/ e/=d/ d/c/ |
[V:2]=A3 |
[V:3]^F3 |
[V:4]^F,3 |
[V:1]=B .G .G |
[V:2]D z z |
[V:3]G z z |
[V:4]G, z z |
[V:1].G .G .G |
[V:2].=F .F .F |
[V:3]z3 |
[V:4]z G,, =A,, |
[V:1].G .G .G |
[V:2].F .F .F |
[V:3]z3 |
[V:4].B,, !sfz!=B,,2 |
[V:1].G .G .G |
[V:2].F .F .F |
[V:3]z3 |
[V:4].C, !sfz!^C,2 |
[V:1].G .G .G |
[V:2].F .F .F |
[V:3]z3 |
[V:4]D,/E,/ =F,/.E,/ .D,/.=C,/ |
[V:1].G .G .G |
[V:2].F .F .F |
[V:3]z3 |
[V:4]=B,,/C,/ D,/.C,/ .B,,/.A,,/ |
[V:1].G G =A |
[V:2].F .G .G |
[V:3]z .=F .F |
[V:4]G,, z z |
[V:1].B !sfz!=B2 |
[V:2].G .G .G |
[V:3].F .F .F |
[V:4]z3 |
[V:1].c !sfz!^c2 |
[V:2].G .G .G |
[V:3].F .F .F |
[V:4]z3 |
[V:1]d/e/ f/.e/ .d/.=c/ |
[V:2]G G G |
[V:3]F F F |
[V:4]z3 |
[V:1]=B/_a/ g/.f/ .e/.d/ |
[V:2]G G G |
[V:3]F F F |
[V:4]z3 |
[V:1]c/e/ g/.f/ .e/.d/ |
[V:2]G G G |
[V:3]E E E |
[V:4]z3 |
[V:1]c/g/ c'/.b/ .=a/.g/ |
[V:2]G G G |
[V:3]E E E |
[V:4]z3 |
[V:1]^f/g/ a/g/ f/e/ |
[V:2]=A A A |
[V:3]D D D |
[V:4]z3 |
[V:1]d/e/ d/.c/ .B/.A/ |
[V:2]A A A |
[V:3]^F F F |
[V:4]z3 |
[V:1]B/g/ g/^f/ f/a/ |
[V:2]B/d/ d/c/ c/e/ |
[V:3]G/B/ B/A/ A/c/ |
[V:4]z3 |
[V:1]a/g/ g/=f/ f/e/ |
[V:2]e/d/ d/c/ c/B/ |
[V:3]c/B/ B/_A/ A/G/ |
[V:4]z3 |
[V:1]e/d/ d/e/ e/d/ |
[V:2]B/A/ A/B/ B/_A/ |
[V:3]G/^F/ F/G/ G/=F/ |
[V:4]z3 |
[V:1]d/c/ c/=B/ B/c/ |
[V:2]_A/G/ G/F/ F/G/ |
[V:3]F/E/ E/D/ D/E/ |
[V:4]z3 |
[V:1]c/B/ B/A/ A/G/ |
[V:2]G/F/ F/E/ E/D/ |
[V:3]E/D/ D/C/ C/B,/ |
[V:4]z3 |
[V:1]G3- |
[V:2]D/^C/ C/D/ D/E/ |
[V:3]B,3- |
[V:4]z/.^C,/ C,/D,/ D,/E,/ |
[V:1]G3- |
[V:2]E/G/ E/D/ D/^C/ |
[V:3]B,3- |
[V:4]E,/G,/ E,/D,/ D,/^C,/ |
[V:1]G2 B/A/ |
[V:2]D G ^F |
[V:3]B,2 D/C/ |
[V:4]D,3 |
[V:1]c/=B/ d/.f/ ._a/.=b/ |
[V:2]=F3- |
[V:3]D3- |
[V:4]G,,3- |
[V:1].d'/.=b/ ._a/.f/ .d/.=B/ |
[V:2]F3 |
[V:3]D3 |
[V:4]G,,3- |
[V:1]!sfz!d/c/ e/.g/ .c'/.e'/ |
[V:2]!sfz!E3- |
[V:3]!sfz!C3- |
[V:4]!sfz!G,,3- |
[V:1].g'/.e'/ .c'/.g/ .e/.c/ |
[V:2]E3- |
[V:3]C3 |
[V:4]G,,3 |
[V:1]!sfz!B/=A/ e'/.c'/ .a/.f/ |
[V:2]!sfz!E3- |
[V:3]!sfz!C3- |
[V:4]!sfz!F,,3- |
[V:1].e/.c/ .A/.F/ .E/.C/ |
[V:2]E3 |
[V:3]C3 |
[V:4]F,,3 |
[V:1]B,2 A, |
[V:2]z G, A, |
[V:3]z _D, C, |
[V:4]z =E,, F,, |
[V:1]E2 D |
[V:2]z C B, |
[V:3]z _G, F, |
[V:4]z A,, B,, |
[V:1]G2 F |
[V:2]z B, =B, |
[V:3]z .=G, .G, |
[V:4]z E, _D, |
[V:1]=E z z |
[V:2]B, z z |
[V:3]G, z z |
[V:4]C, z z |
[V:1]e2 =d |
[V:2]c2 B |
[V:3]F3 |
[V:4]A,,2 B,, |
[V:1]!trill!c d B |
[V:2]G3 |
[V:3]G E C |
[V:4]E,2 =E, |
[V:1]A B =B |
[V:2]F G ^G |
[V:3]C z z |
[V:4]F,3- |
[V:1]c z z |
[V:2]A z z |
[V:3]z3 |
[V:4]F, E, C, |
[V:1]B,/C/ D/E/ =E/F/ |
[V:2]z3 |
[V:3]B,2 A, |
[V:4]B,, z z |
[V:1]^F/G/ _A/=A/ c/B/ |
[V:2]z3 |
[V:3]E2 D |
[V:4]z3 |
[V:1]B/e/ e/d/ d/c/ |
[V:2]z3 |
[V:3]G2 F |
[V:4]z3 |
[V:1]c c c |
[V:2]=G/c/ c/B/ B/A/ |
[V:3]=E E E |
[V:4]z3 |
[V:1]c/g/ g/f/ f/=e/ |
[V:2]A2 B |
[V:3]E2 =D |
[V:4]z3 |
[V:1]=e/d'/ d'/c'/ c'/b/ |
[V:2][BG] =e g |
[V:3]C3 |
[V:4]z3 |
[V:1]a2 g |
[V:2]g f z |
[V:3]F,/G,/ A,/B,/ =B,/C/ |
[V:4]F,2 =E, |
[V:1]f d c |
[V:2]z3 |
[V:3]^C/D/ E/=E/ G/F/ |
[V:4]B,2 A, |
[V:1]c/B/ B/A/ A/G/ |
[V:2]z3 |
[V:3]F3 |
[V:4]D2 C |
[V:1]G/d/ d/c/ c/G/ |
[V:2]z3 |
[V:3]=E3 |
[V:4]B,3 |
[V:1]A/g/ g/f/ f/c/ |
[V:2]z3 |
[V:3]E3 |
[V:4]F,3 |
[V:1]d z z |
[V:2]B2 A |
[V:3]D2 C |
[V:4]B,,/C,/ D,/E,/ =E,/F,/ |
[V:1]z3 |
[V:2]e2 d |
[V:3]c2 B |
[V:4]^F,/G,/ _A,/=A,/ B,/G,/ |
[V:1]z3 |
[V:2]g2 f |
[V:3]G/A/ B/c/ d/c/ |
[V:4]E,/=F,/ G,/A,/ B,/=B,/ |
[V:1]z3 |
[V:2]=e z z |
[V:3]B z z |
[V:4]C z z |
[V:1]e2 d |
[V:2]c2 B |
[V:3]F3 |
[V:4]A,2 B, |
[V:1]c !trill!d e |
[V:2]G F E |
[V:3]E F G |
[V:4]E, D, C, |
[V:1]B2 d/c/ |
[V:2]D2 F/E/ |
[V:3]F D A, |
[V:4]F,3 |
[V:1]B/e/ e/d/ d/g/ |
[V:2]D/B/ B B |
[V:3]B,/G/ G/F/ F/E/ |
[V:4]B,, z z |
[V:1]g/f/ f/b/ b/a/ |
[V:2]B >.f f/e/ |
[V:3]E/D/ D/d/ d/c/ |
[V:4]z3 |
[V:1]a/g/ g/f/ f/=e/ |
[V:2]e/d/ d/c/ c/B/ |
[V:3]c/B/ B/A/ A/G/ |
[V:4]z3 |
[V:1]=e3 |
[V:2]B3 |
[V:3]G3 |
[V:4]z/_D/ D/C/ C/B,/ |
[V:1]e3 |
[V:2]c2 A |
[V:3]_G2 F |
[V:4]B,/A,/ B,/A,/ C/F,/ |
[V:1]e/d/ d/c/ g/c/ |
[V:2]B G G |
[V:3]F =G B, |
[V:4]B, E, =E, |
[V:1]B2 c3//B// |
[V:2]D2 E |
[V:3]B,2 A, |
[V:4]F,3 |
[V:1]B e .e |
[V:2]D B .B |
[V:3]B, G .G |
[V:4]G, G, G, |
[V:1]e .E .E |
[V:2]c .F .F |
[V:3]F z z |
[V:4]A, z z |
[V:1].E .E .E |
[V:2].F .F .F |
[V:3]z3 |
[V:4]z F,, G,, |
[V:1]E E E |
[V:2]F F F |
[V:3]z3 |
[V:4]._A,, !sfz!=A,,2 |
[V:1]E E E |
[V:2]F F F |
[V:3]z3 |
[V:4].B,, !sfz!=B,,2 |
[V:1]E E E |
[V:2]F F F |
[V:3]z3 |
[V:4]C,/D,/ E,/.D,/ .C,/.B,,/ |
[V:1]E E E |
[V:2]F F F |
[V:3]z3 |
[V:4]A,,/B,,/ C,/.B,,/ .A,,/.G,,/ |
[V:1]E f =e |
[V:2]F F F |
[V:3]z .E .E |
[V:4]F,, z z |
[V:1].e !sfz!d2 |
[V:2]F F F |
[V:3].E .E .E |
[V:4]z3 |
[V:1].c !sfz!=B2 |
[V:2]F F F |
[V:3]E E E |
[V:4]z3 |
[V:1]c/d/ e/.d/ .c/.B/ |
[V:2]F F F |
[V:3]E E E |
[V:4]z3 |
[V:1]A3 |
[V:2]F F F |
[V:3]E E E |
[V:4]C/D/ E/.D/ .C/.B,/ |
[V:1]E E E |
[V:2]c/d/ e/.d/ .c/.B/ |
[V:3]F F F |
[V:4]A, z z |
[V:1]_g f z |
[V:2]A/B/ c/.B/ .A/.B/ |
[V:3]F F F |
[V:4]E E E |
[V:1]_g f z |
[V:2]A/B/ c/.B/ .A/.B/ |
[V:3]F F F |
[V:4]E E E |
[V:1]_a g z |
[V:2]=B/c/ d/.c/ .B/c/ |
[V:3]F F F |
[V:4]D/E/ F/.E/ .D/.E/ |
[V:1]_a g z |
[V:2]=B/c/ d/.c/ .B/.c/ |
[V:3]F F F |
[V:4]D/E/ F/.E/ .D/.E/ |
[V:1]=e/f/ g/.f/ .e/.f/ |
[V:2]B B B |
[V:3]G/_A/ B/.A/ .G/.A/ |
[V:4]_D C z |
[V:1]=e/f/ g/.f/ .e/.f/ |
[V:2]B B B |
[V:3]G/_A/ B/.A/ .G/.A/ |
[V:4]_D C z |
[V:1]=e/f/ =a/g/ b/a/ |
[V:2]B3 |
[V:3]G3- |
[V:4]C3- |
[V:1]c'/b/ .g/.=e/ .c/.B/ |
[V:2]=E3 |
[V:3]G3 |
[V:4]C3 |
[V:1]A/B/ d/c/ e/d/ |
[V:2]E3 |
[V:3]=A3 |
[V:4]F,3- |
[V:1]f/e/ .c/.A/ .F/.E/ |
[V:2]A,3 |
[V:3]c2 C |
[V:4]F,3 |
[V:1]D/F/ B/F/ d/B/ |
[V:2]B, D F |
[V:3]D3 |
[V:4]B,,3 |
[V:1]A/G/ ^f/g/ e/c/ |
[V:2]B,2 G/E/ |
[V:3]E2 G, |
[V:4]E,3 |
[V:1]B d =f |
[V:2]D3 |
[V:3]B,3 |
[V:4]F,3 |
[V:1]F G A |
[V:2]E3 |
[V:3]A, B, C |
[V:4]F,,3 |
[V:1]c2 B |
[V:2]E2 D |
[V:3]A,2 B, |
[V:4]z B,, B,, |
[V:1]e2 d |
[V:2]A2 B |
[V:3]C2 B, |
[V:4]z B,, B,, |
[V:1]g2 f |
[V:2]e2 d |
[V:3]A2 B |
[V:4]z B,, B,, |
[V:1]!sfz!e'2 d'//c'//b//a// |
[V:2]!sfz!A2 e |
[V:3]!sfz!c3 |
[V:4]!sfz!F,,3 |
[V:1]b z F/B/ |
[V:2]d z z |
[V:3]B z z |
[V:4]B,, z z |
[V:1]A/c/ e/.g/ .f/.A/ |
[V:2]A3 |
[V:3]C3 |
[V:4]F,3 |
[V:1]B z z |
[V:2]B z z |
[V:3]D z F,/B,/ |
[V:4]B,, z z |
[V:1]E3 |
[V:2]C3 |
[V:3]A,/C/ E/.G/ .F/.A,/ |
[V:4]F,,3 |
[V:1]D z z |]
[V:2]D z z |]
[V:3]B, z z |]
[V:4]B,, z z |]

